actions/48/go-bottom.svg

<?xml version="1.0" encoding="UTF-8" standalone="no"?>
<!-- Created with Inkscape (http://www.inkscape.org/) -->

<svg
   xmlns:dc="http://purl.org/dc/elements/1.1/"
   xmlns:cc="http://creativecommons.org/ns#"
   xmlns:rdf="http://www.w3.org/1999/02/22-rdf-syntax-ns#"
   xmlns:svg="http://www.w3.org/2000/svg"
   xmlns="http://www.w3.org/2000/svg"
   xmlns:xlink="http://www.w3.org/1999/xlink"
   xmlns:inkscape="http://www.inkscape.org/namespaces/inkscape"
   version="1.1"
   width="48"
   height="48"
   id="svg2510">
  <defs
     id="defs2512">
    <linearGradient
       x1="26"
       y1="-9.193471"
       x2="26"
       y2="0.079183199"
       id="linearGradient3174"
       xlink:href="#linearGradient5113"
       gradientUnits="userSpaceOnUse"
       gradientTransform="translate(-1.960196,48.00635)" />
    <linearGradient
       id="linearGradient3168">
      <stop
         id="stop2551"
         style="stop-color:#a7cc5c;stop-opacity:1"
         offset="0" />
      <stop
         id="stop3173"
         style="stop-color:#789e2d;stop-opacity:1"
         offset="1" />
    </linearGradient>
    <linearGradient
       x1="8.0398045"
       y1="42.506351"
       x2="40.039803"
       y2="42.506351"
       id="linearGradient3175"
       xlink:href="#linearGradient3168"
       gradientUnits="userSpaceOnUse" />
    <linearGradient
       id="linearGradient5113">
      <stop
         id="stop5115"
         style="stop-color:#ffffff;stop-opacity:1"
         offset="0" />
      <stop
         id="stop5117"
         style="stop-color:#ffffff;stop-opacity:0"
         offset="1" />
    </linearGradient>
    <linearGradient
       x1="43.129921"
       y1="15.195395"
       x2="7.9313831"
       y2="34.731434"
       id="linearGradient2606"
       xlink:href="#linearGradient5113"
       gradientUnits="userSpaceOnUse"
       gradientTransform="matrix(0,-1.004639,1,0,-1.992111,51.04406)" />
    <linearGradient
       id="linearGradient2264">
      <stop
         id="stop2266"
         style="stop-color:#d7e866;stop-opacity:1"
         offset="0" />
      <stop
         id="stop2268"
         style="stop-color:#8cab2a;stop-opacity:1"
         offset="1" />
    </linearGradient>
    <linearGradient
       x1="24.004463"
       y1="7.1938653"
       x2="24.004463"
       y2="37.193859"
       id="linearGradient3172"
       xlink:href="#linearGradient2264"
       gradientUnits="userSpaceOnUse" />
    <linearGradient
       id="linearGradient5105">
      <stop
         id="stop5107"
         style="stop-color:#000000;stop-opacity:1"
         offset="0" />
      <stop
         id="stop5109"
         style="stop-color:#000000;stop-opacity:0"
         offset="1" />
    </linearGradient>
    <radialGradient
       cx="11.25"
       cy="19.03125"
       r="8.0625"
       fx="11.25"
       fy="19.03125"
       id="radialGradient2604"
       xlink:href="#linearGradient5105"
       gradientUnits="userSpaceOnUse"
       gradientTransform="matrix(1,0,0,0.282946,0,13.64644)" />
  </defs>
  <metadata
     id="metadata2515">
    <rdf:RDF>
      <cc:Work
         rdf:about="">
        <dc:format>image/svg+xml</dc:format>
        <dc:type
           rdf:resource="http://purl.org/dc/dcmitype/StillImage" />
      </cc:Work>
    </rdf:RDF>
  </metadata>
  <g
     id="layer1">
    <g
       transform="translate(-2.5e-7,3.6875e-6)"
       id="g2595"
       style="display:inline">
      <path
         d="m 19.3125,19.03125 a 8.0625,2.28125 0 1 1 -16.125,0 8.0625,2.28125 0 1 1 16.125,0 z"
         transform="matrix(2.48062,0,0,2.410961,-3.906976,-5.38361)"
         id="path4346"
         style="opacity:0.16292138;fill:url(#radialGradient2604);fill-opacity:1;fill-rule:nonzero;stroke:none;stroke-width:1;marker:none;visibility:visible;display:inline;overflow:visible" />
      <path
         d="M 7.5398059,20.590592 24.04583,39.506349 40.469121,20.590592 l -7.869835,0 0,-15.0842271 -17.055132,0 0,15.0842271 -8.0043481,0 z"
         inkscape:connector-curvature="0"
         id="path4348"
         style="fill:url(#linearGradient3172);fill-opacity:1;fill-rule:nonzero;stroke:#548820;stroke-width:0.99999958;stroke-linecap:butt;stroke-linejoin:miter;stroke-miterlimit:4;stroke-opacity:1;stroke-dasharray:none;stroke-dashoffset:0;marker:none;visibility:visible;display:inline;overflow:visible" />
      <path
         d="m 9.6808629,21.573053 14.3862731,16.516639 14.199301,-16.516639 -6.738369,0 0,-15.0666835 -14.978334,0 0,15.0666835 -6.8688711,0 z"
         inkscape:connector-curvature="0"
         id="path4360"
         style="opacity:0.35400008;fill:none;stroke:url(#linearGradient2606);stroke-width:0.99999958;stroke-linecap:butt;stroke-linejoin:miter;stroke-miterlimit:4;stroke-opacity:1;stroke-dasharray:none;stroke-dashoffset:0;marker:none;visibility:visible;display:inline;overflow:visible" />
      <rect
         width="33.000008"
         height="4.0000119"
         x="7.5398059"
         y="40.506359"
         id="rect2600"
         style="fill:#97ae43;fill-opacity:1;fill-rule:nonzero;stroke:#548820;stroke-width:0.99999982;stroke-linecap:butt;stroke-linejoin:miter;stroke-miterlimit:4;stroke-opacity:1;stroke-dasharray:none;stroke-dashoffset:0;marker:none;visibility:visible;display:inline;overflow:visible" />
      <rect
         width="31"
         height="2.0000019"
         x="8.5398045"
         y="41.506351"
         id="rect2602"
         style="opacity:0.35400008;fill:url(#linearGradient3175);fill-opacity:1;fill-rule:nonzero;stroke:url(#linearGradient3174);stroke-width:0.99999988;stroke-linecap:butt;stroke-linejoin:miter;stroke-miterlimit:4;stroke-opacity:1;stroke-dasharray:none;stroke-dashoffset:0;marker:none;visibility:visible;display:inline;overflow:visible" />
    </g>
  </g>
</svg>

<?xml version="1.0" encoding="UTF-8" standalone="no"?>
<!-- Created with Inkscape (http://www.inkscape.org/) -->
<svg
   xmlns:dc="http://purl.org/dc/elements/1.1/"
   xmlns:cc="http://creativecommons.org/ns#"
   xmlns:rdf="http://www.w3.org/1999/02/22-rdf-syntax-ns#"
   xmlns:svg="http://www.w3.org/2000/svg"
   xmlns="http://www.w3.org/2000/svg"
   xmlns:xlink="http://www.w3.org/1999/xlink"
   xmlns:sodipodi="http://sodipodi.sourceforge.net/DTD/sodipodi-0.dtd"
   xmlns:inkscape="http://www.inkscape.org/namespaces/inkscape"
   width="48px"
   height="48px"
   id="svg2510"
   sodipodi:version="0.32"
   inkscape:version="0.46"
   sodipodi:docname="go-bottom.svg"
   inkscape:output_extension="org.inkscape.output.svg.inkscape">
  <defs
     id="defs2512">
    <linearGradient
       y2="0.079183199"
       x2="26"
       y1="-9.193471"
       x1="26"
       gradientTransform="translate(-1.960196,48.00635)"
       gradientUnits="userSpaceOnUse"
       id="linearGradient3174"
       xlink:href="#linearGradient5113"
       inkscape:collect="always" />
    <linearGradient
       id="linearGradient3168">
      <stop
         id="stop2551"
         offset="0"
         style="stop-color:#a7cc5c;stop-opacity:1;" />
      <stop
         id="stop3173"
         offset="1"
         style="stop-color:#789e2d;stop-opacity:1;" />
    </linearGradient>
    <linearGradient
       gradientUnits="userSpaceOnUse"
       y2="42.506352"
       x2="40.039804"
       y1="42.506352"
       x1="8.0398045"
       id="linearGradient3175"
       xlink:href="#linearGradient3168"
       inkscape:collect="always" />
    <linearGradient
       id="linearGradient5113">
      <stop
         id="stop5115"
         offset="0"
         style="stop-color:white;stop-opacity:1;" />
      <stop
         id="stop5117"
         offset="1"
         style="stop-color:#ffffff;stop-opacity:0;" />
    </linearGradient>
    <linearGradient
       inkscape:collect="always"
       xlink:href="#linearGradient5113"
       id="linearGradient2606"
       gradientUnits="userSpaceOnUse"
       gradientTransform="matrix(0,-1.004639,1,0,-1.992111,51.04406)"
       x1="43.129921"
       y1="15.195395"
       x2="7.9313831"
       y2="34.731434" />
    <linearGradient
       id="linearGradient2264">
      <stop
         style="stop-color:#d7e866;stop-opacity:1;"
         offset="0"
         id="stop2266" />
      <stop
         style="stop-color:#8cab2a;stop-opacity:1;"
         offset="1"
         id="stop2268" />
    </linearGradient>
    <linearGradient
       gradientUnits="userSpaceOnUse"
       y2="37.193859"
       x2="24.004463"
       y1="7.1938653"
       x1="24.004463"
       id="linearGradient3172"
       xlink:href="#linearGradient2264"
       inkscape:collect="always" />
    <linearGradient
       id="linearGradient5105"
       inkscape:collect="always">
      <stop
         id="stop5107"
         offset="0"
         style="stop-color:black;stop-opacity:1;" />
      <stop
         id="stop5109"
         offset="1"
         style="stop-color:black;stop-opacity:0;" />
    </linearGradient>
    <radialGradient
       inkscape:collect="always"
       xlink:href="#linearGradient5105"
       id="radialGradient2604"
       gradientUnits="userSpaceOnUse"
       gradientTransform="matrix(1,0,0,0.282946,0,13.64644)"
       cx="11.25"
       cy="19.03125"
       fx="11.25"
       fy="19.03125"
       r="8.0625" />
  </defs>
  <sodipodi:namedview
     id="base"
     pagecolor="#ffffff"
     bordercolor="#666666"
     borderopacity="1.0"
     inkscape:pageopacity="0.0"
     inkscape:pageshadow="2"
     inkscape:zoom="7"
     inkscape:cx="24"
     inkscape:cy="24"
     inkscape:current-layer="layer1"
     showgrid="true"
     inkscape:grid-bbox="true"
     inkscape:document-units="px"
     inkscape:window-width="640"
     inkscape:window-height="720"
     inkscape:window-x="0"
     inkscape:window-y="24" />
  <metadata
     id="metadata2515">
    <rdf:RDF>
      <cc:Work
         rdf:about="">
        <dc:format>image/svg+xml</dc:format>
        <dc:type
           rdf:resource="http://purl.org/dc/dcmitype/StillImage" />
      </cc:Work>
    </rdf:RDF>
  </metadata>
  <g
     id="layer1"
     inkscape:label="Layer 1"
     inkscape:groupmode="layer">
    <g
       style="display:inline"
       id="g2595"
       inkscape:label="Layer 1"
       transform="translate(-2.5e-7,3.6875e-6)">
      <path
         transform="matrix(2.48062,0,0,2.410961,-3.906976,-5.38361)"
         d="M 19.3125,19.03125 A 8.0625,2.28125 0 1 1 3.1875,19.03125 A 8.0625,2.28125 0 1 1 19.3125,19.03125 z"
         sodipodi:ry="2.28125"
         sodipodi:rx="8.0625"
         sodipodi:cy="19.03125"
         sodipodi:cx="11.25"
         id="path4346"
         style="opacity:0.16292138;fill:url(#radialGradient2604);fill-opacity:1;fill-rule:nonzero;stroke:none;stroke-width:1;stroke-linecap:butt;stroke-linejoin:miter;marker:none;marker-start:none;marker-mid:none;marker-end:none;stroke-miterlimit:4;stroke-dasharray:none;stroke-dashoffset:0;stroke-opacity:1;visibility:visible;display:inline;overflow:visible"
         sodipodi:type="arc" />
      <path
         sodipodi:nodetypes="cccccccc"
         id="path4348"
         d="M 7.5398059,20.590592 L 24.04583,39.506349 L 40.469121,20.590592 L 32.599286,20.590592 L 32.599286,5.5063649 L 15.544154,5.5063649 L 15.544154,20.590592 L 7.5398059,20.590592 z"
         style="opacity:1;fill:url(#linearGradient3172);fill-opacity:1;fill-rule:nonzero;stroke:#548820;stroke-width:0.99999958;stroke-linecap:butt;stroke-linejoin:miter;marker:none;marker-start:none;marker-mid:none;marker-end:none;stroke-miterlimit:4;stroke-dasharray:none;stroke-dashoffset:0;stroke-opacity:1;visibility:visible;display:inline;overflow:visible" />
      <path
         sodipodi:nodetypes="cccccccc"
         id="path4360"
         d="M 9.6808629,21.573053 L 24.067136,38.089692 L 38.266437,21.573053 L 31.528068,21.573053 L 31.528068,6.5063695 L 16.549734,6.5063695 L 16.549734,21.573053 L 9.6808629,21.573053 z"
         style="opacity:0.35400002;fill:none;fill-opacity:1;fill-rule:nonzero;stroke:url(#linearGradient2606);stroke-width:0.99999958;stroke-linecap:butt;stroke-linejoin:miter;marker:none;marker-start:none;marker-mid:none;marker-end:none;stroke-miterlimit:4;stroke-dasharray:none;stroke-dashoffset:0;stroke-opacity:1;visibility:visible;display:inline;overflow:visible" />
      <rect
         style="fill:#97ae43;fill-opacity:1;fill-rule:nonzero;stroke:#548820;stroke-width:0.99999982;stroke-linecap:butt;stroke-linejoin:miter;marker:none;marker-start:none;marker-mid:none;marker-end:none;stroke-miterlimit:4;stroke-dasharray:none;stroke-dashoffset:0;stroke-opacity:1;visibility:visible;display:inline;overflow:visible"
         id="rect2600"
         width="33.000008"
         height="4.0000119"
         x="7.5398059"
         y="40.506359" />
      <rect
         style="opacity:0.35400002;fill:url(#linearGradient3175);fill-opacity:1;fill-rule:nonzero;stroke:url(#linearGradient3174);stroke-width:0.99999988;stroke-linecap:butt;stroke-linejoin:miter;marker:none;marker-start:none;marker-mid:none;marker-end:none;stroke-miterlimit:4;stroke-dasharray:none;stroke-dashoffset:0;stroke-opacity:1;visibility:visible;display:inline;overflow:visible"
         id="rect2602"
         width="31"
         height="2.0000019"
         x="8.5398045"
         y="41.506351" />
    </g>
  </g>
</svg>
